build/svg/cmd/sc_openreadonly.svg

<?xml version="1.0" encoding="UTF-8" standalone="no"?>
<svg
   xmlns:dc="http://purl.org/dc/elements/1.1/"
   xmlns:cc="http://creativecommons.org/ns#"
   xmlns:rdf="http://www.w3.org/1999/02/22-rdf-syntax-ns#"
   xmlns:svg="http://www.w3.org/2000/svg"
   xmlns="http://www.w3.org/2000/svg"
   xmlns:sodipodi="http://sodipodi.sourceforge.net/DTD/sodipodi-0.dtd"
   xmlns:inkscape="http://www.inkscape.org/namespaces/inkscape"
   viewBox="0 0 16 16"
   version="1.1"
   id="svg4"
   sodipodi:docname="sc_openreadonly.svg"
   inkscape:version="0.92.4 (5da689c313, 2019-01-14)"
   inkscape:export-filename="/home/jupiter007/Libreoffice yaru theme fullcolor/build/cmd/sc_openreadonly.png"
   inkscape:export-xdpi="96"
   inkscape:export-ydpi="96"><metadata
   id="metadata10">
  <rdf:RDF>
    <cc:Work
       rdf:about="">
      <dc:format>image/svg+xml</dc:format>
      <dc:type
         rdf:resource="http://purl.org/dc/dcmitype/StillImage" />
      <dc:title />
    </cc:Work>
  </rdf:RDF>
</metadata>
<defs
   id="defs8" />
<sodipodi:namedview
   pagecolor="#ffffff"
   bordercolor="#666666"
   borderopacity="1"
   objecttolerance="10"
   gridtolerance="10"
   guidetolerance="10"
   inkscape:pageopacity="0"
   inkscape:pageshadow="2"
   inkscape:window-width="1920"
   inkscape:window-height="1011"
   id="namedview6"
   showgrid="true"
   inkscape:zoom="32"
   inkscape:cx="1.60366"
   inkscape:cy="8.7692752"
   inkscape:window-x="0"
   inkscape:window-y="32"
   inkscape:window-maximized="1"
   inkscape:current-layer="svg4">
  <inkscape:grid
     type="xygrid"
     id="grid823" />
</sodipodi:namedview>



/&gt;<path
   sodipodi:nodetypes="sccccccccccsscccccsscs"
   inkscape:connector-curvature="0"
   id="path820-3"
   d="M 1.9999995,5.0000001 C 2.0000585,4.4080001 2.0619585,3.994 2.1598929,3.734 2.2578279,3.474 2.3627579,3.3630001 2.5466354,3.2620001 2.9123915,3.059 4.7291245,3 6.0033309,3 H 6.5369751 L 8.6518986,5 9.1120991,5.254 H 9.815123 l 1.532977,1e-7 c 1.263158,0.015 1.739507,0.06 2.107262,0.2619999 0.182878,0.1 0.287808,0.212 0.385743,0.4720001 C 13.939035,6.248 14.003076,6.662 14.002997,7.254 L 14.002498,11 c -7.9e-5,0.592 -0.06296,1.006 -0.159893,1.266 -0.09794,0.26 -0.202865,0.371 -0.386742,0.472 C 13.090106,12.94 12.263657,12.985 11.004497,13 H 5.9968359 C 4.7376754,12.985 2.9118925,12.94 2.5461364,12.738 2.3622589,12.638 2.2563296,12.526 2.1593942,12.266 2.0624588,12.006 1.9995008,11.592 1.9995008,11 v -1 z"
   style="color:#000000;font-weight:400;line-height:normal;font-family:sans-serif;font-variant-ligatures:none;font-variant-position:normal;font-variant-caps:normal;font-variant-numeric:normal;font-variant-alternates:normal;font-feature-settings:normal;text-indent:0;text-align:start;text-decoration:none;text-decoration-line:none;text-decoration-style:solid;text-decoration-color:#000000;text-transform:none;white-space:normal;shape-padding:0;overflow:visible;opacity:0.4;isolation:auto;mix-blend-mode:normal;fill:#000000;fill-opacity:1;stroke:#000000;stroke-width:2;stroke-linejoin:round;stroke-miterlimit:4;stroke-dasharray:none;stroke-opacity:1;marker:none" />
<path
   style="color:#000000;font-weight:400;line-height:normal;font-family:sans-serif;font-variant-ligatures:none;font-variant-position:normal;font-variant-caps:normal;font-variant-numeric:normal;font-variant-alternates:normal;font-feature-settings:normal;text-indent:0;text-align:start;text-decoration:none;text-decoration-line:none;text-decoration-style:solid;text-decoration-color:#000000;text-transform:none;white-space:normal;shape-padding:0;overflow:visible;isolation:auto;mix-blend-mode:normal;fill:#dfdfdf;fill-opacity:1;stroke-width:0.99966687;stroke-linejoin:round;marker:none"
   d="M 1.9999995,5.0000001 C 2.0000585,4.4080001 2.0619585,3.994 2.1598929,3.734 2.2578279,3.474 2.3627579,3.3630001 2.5466354,3.2620001 2.9123915,3.059 4.7291245,3 6.0033309,3 H 6.5369751 L 8.6518986,5 9.1120991,5.254 H 9.815123 l 1.532977,1e-7 c 1.263158,0.015 1.739507,0.06 2.107262,0.2619999 0.182878,0.1 0.287808,0.212 0.385743,0.4720001 C 13.939035,6.248 14.003076,6.662 14.002997,7.254 L 14.002498,11 c -7.9e-5,0.592 -0.06296,1.006 -0.159893,1.266 -0.09794,0.26 -0.202865,0.371 -0.386742,0.472 C 13.090106,12.94 12.263657,12.985 11.004497,13 H 5.9968359 C 4.7376754,12.985 2.9118925,12.94 2.5461364,12.738 2.3622589,12.638 2.2563296,12.526 2.1593942,12.266 2.0624588,12.006 1.9995008,11.592 1.9995008,11 v -1 z"
   id="path2-0"
   inkscape:connector-curvature="0"
   sodipodi:nodetypes="sccccccccccsscccccsscs" />
<rect
   style="opacity:0.4;vector-effect:none;fill:#000000;fill-opacity:1;stroke:none;stroke-width:1.27272725;stroke-linecap:round;stroke-linejoin:round;stroke-miterlimit:4;stroke-dasharray:none;stroke-dashoffset:0;stroke-opacity:1"
   id="rect2081"
   width="7"
   height="8"
   x="7"
   y="8"
   ry="1"
   rx="1.2727273" />
<rect
   style="opacity:1;vector-effect:none;fill:#ffffff;fill-opacity:1;stroke:none;stroke-width:1.27272725;stroke-linecap:round;stroke-linejoin:round;stroke-miterlimit:4;stroke-dasharray:none;stroke-dashoffset:0;stroke-opacity:1"
   id="rect2085"
   width="5"
   height="6"
   x="8"
   y="9"
   rx="0"
   ry="1" />
<rect
   style="opacity:0.2;vector-effect:none;fill:#000000;fill-opacity:1;stroke:none;stroke-width:1.27272725;stroke-linecap:round;stroke-linejoin:round;stroke-miterlimit:4;stroke-dasharray:none;stroke-dashoffset:0;stroke-opacity:1"
   id="rect2100"
   width="3"
   height="1"
   x="9"
   y="10" />
<rect
   style="opacity:0.2;vector-effect:none;fill:#000000;fill-opacity:1;stroke:none;stroke-width:1.27272725;stroke-linecap:round;stroke-linejoin:round;stroke-miterlimit:4;stroke-dasharray:none;stroke-dashoffset:0;stroke-opacity:1"
   id="rect2102"
   width="2"
   height="1"
   x="9"
   y="12" />
</svg>

<svg xmlns="http://www.w3.org/2000/svg" viewBox="0 0 16 16">/&gt;<path d="M2 5c0-.592.062-1.006.16-1.266s.203-.371.387-.472C2.912 3.059 4.729 3 6.003 3h.534l2.115 2 .46.254H11.348c1.263.015 1.74.06 2.107.262.183.1.288.212.386.472.098.26.162.674.162 1.266V11c0 .592-.063 1.006-.16 1.266-.098.26-.203.371-.387.472-.366.202-1.192.247-2.452.262H5.997c-1.26-.015-3.085-.06-3.45-.262-.185-.1-.29-.212-.388-.472C2.062 12.006 2 11.592 2 11v-1z" style="line-height:normal;font-variant-ligatures:none;font-variant-position:normal;font-variant-caps:normal;font-variant-numeric:normal;font-variant-alternates:normal;font-feature-settings:normal;text-indent:0;text-align:start;text-decoration-line:none;text-decoration-style:solid;text-decoration-color:#000;text-transform:none;white-space:normal;shape-padding:0;isolation:auto;mix-blend-mode:normal;marker:none" color="#000" font-weight="400" font-family="sans-serif" overflow="visible" opacity=".4" stroke="#000" stroke-width="2" stroke-linejoin="round"/><path style="line-height:normal;font-variant-ligatures:none;font-variant-position:normal;font-variant-caps:normal;font-variant-numeric:normal;font-variant-alternates:normal;font-feature-settings:normal;text-indent:0;text-align:start;text-decoration-line:none;text-decoration-style:solid;text-decoration-color:#000;text-transform:none;white-space:normal;shape-padding:0;isolation:auto;mix-blend-mode:normal;marker:none" d="M2 5c0-.592.062-1.006.16-1.266s.203-.371.387-.472C2.912 3.059 4.729 3 6.003 3h.534l2.115 2 .46.254H11.348c1.263.015 1.74.06 2.107.262.183.1.288.212.386.472.098.26.162.674.162 1.266V11c0 .592-.063 1.006-.16 1.266-.098.26-.203.371-.387.472-.366.202-1.192.247-2.452.262H5.997c-1.26-.015-3.085-.06-3.45-.262-.185-.1-.29-.212-.388-.472C2.062 12.006 2 11.592 2 11v-1z" color="#000" font-weight="400" font-family="sans-serif" overflow="visible" fill="#dfdfdf"/><rect width="7" height="8" x="7" y="8" ry="1" rx="1.273" opacity=".4"/><rect width="5" height="6" x="8" y="9" rx="0" ry="1" fill="#fff"/><path opacity=".2" d="M9 10h3v1H9zM9 12h2v1H9z"/></svg>
